client/public/game_modes/bouncing_ball/frame14.svg

<svg xmlns="http://www.w3.org/2000/svg" width="437" height="483" fill="none"><path fill="#949494" d="M59 360h20v20H59v-20Zm0 20h20v20H59v-20Zm20 20h20v20H79v-20Zm120 40h20v20h-20v-20Zm60 0h40v20h-40v-20Zm40 0h20v20h-20v-20Z"/><path fill="#949494" d="M259 440h20v20h-20v-20Zm-20 0h20v20h-20v-20Zm-20 0h20v20h-20v-20ZM99 380h20v20H99v-20Zm80 60h20v20h-20v-20Zm-20-20h20v20h-20v-20Zm0 20h20v20h-20v-20Zm-20 0h20v20h-20v-20Zm-20 0h20v20h-20v-20Zm0-20h20v20h-20v-20Zm-20 0h20v20H99v-20Zm0-20h20v20H99v-20Zm-20 20h20v20H79v-20Zm-20-20h20v20H59v-20Zm80 20h20v20h-20v-20Zm-20-20h20v20h-20v-20Zm-40-20h20v20H79v-20Zm0-20h20v20H79v-20Zm-20-20h20v20H59v-20Z"/><path stroke="#949494" stroke-width="5" d="M59 360h20m-20 0v20m0-20v-20h20v20m0 0v20m0-20h20v20m-20 0H59m20 0v20m0-20h20m-40 0v20m20 0H59m20 0h20m-20 0v20m-20-20v20h20m20-20v20m0-20h20m-20 0v-20m0 40H79m20 0h20m-20 0v20m-20-20v20h20m100 0h20m-20 0v20m0-20h-20m40 0v20m0-20h20m-20 20h-20m20 0h20m-40 0h-20m80-20h40m-40 0v20m0-20h20v20h-20m0-20h-20m60 0v20m0-20h20v20h-20m0 0h-40m0 0h-20m0-20v20M99 380h20v20m0 0v20m0-20h20v20m40 20v20m0-20v-20h-20m20 20h-20m20 20h-20m0-40v20m0-20h-20m20 20v20m0-20h-20m20 20h-20m0-20v20m0-20h-20m20 0v-20m0 40h-20v-20m0 0v-20m0 20H99m20-20h20"/><path fill="#EDEDED" d="M279 340h20v20h-20v-20Zm0-20h20v20h-20v-20Zm-20 0h20v20h-20v-20Zm0-20h20v20h-20v-20Zm-20 0h20v20h-20v-20Zm0 20h20v20h-20v-20Z"/><path stroke="#EDEDED" stroke-width="5" d="M279 340h20m-20 0v20h20v-20m-20 0v-20m0 20h-20m40 0v-20h-20m0 0h-20m20 0v-20h-20m0 20v20m0-20v-20m0 20h-20m20 20h-20v-20m20-20h-20v20"/><path fill="#D9D9D9" d="M79 340h20v20H79v-20Zm20 0h20v20H99v-20Zm-20-20h20v20H79v-20Zm20 61h20v19H99v-19Zm20 0h20v19h-20v-19Zm40 19h20v20h-20v-20Zm20 0h20v20h-20v-20Zm-40 0h20v20h-20v-20Zm60 0h20v20h-20v-20Zm20 0h20v20h-20v-20Zm60 20h20v20h-20v-20Zm-60 0h20v20h-20v-20Zm20 0h20v20h-20v-20Zm-40 0h20v20h-20v-20Zm60 0h20v20h-20v-20Zm-80 0h20v20h-20v-20Zm120 0h20v20h-20v-20Zm20 0h20v20h-20v-20Zm20 0h20v20h-20v-20Zm0-20h20v20h-20v-20Zm-180-19h20v19h-20v-19Zm20 0h20v19h-20v-19Zm-40 0h20v19h-20v-19Zm60 0h20v19h-20v-19Zm20 0h20v19h-20v-19Zm120 0h20v19h-20v-19Zm-180-21h20v21h-20v-21Zm20 0h20v21h-20v-21Zm-40 0h20v21h-20v-21Zm60 0h20v21h-20v-21Zm20 0h20v21h-20v-21Zm120 0h20v21h-20v-21Zm-180-20h20v20h-20v-20Zm20 0h20v20h-20v-20Zm-40 0h20v20h-20v-20Zm60 0h20v20h-20v-20Zm20 0h20v20h-20v-20Zm20 60h20v20h-20v-20Zm80 0h20v20h-20v-20Zm-80-19h20v19h-20v-19Zm80 0h20v19h-20v-19Zm-60 19h20v20h-20v-20Zm20 0h20v20h-20v-20Zm20 0h20v20h-20v-20Zm-40-19h20v19h-20v-19Zm20 0h20v19h-20v-19Zm20 0h20v19h-20v-19Zm-60-21h20v21h-20v-21Zm20 0h20v21h-20v-21Zm20 0h20v21h-20v-21Zm40 0h20v21h-20v-21Zm-20 0h20v21h-20v-21Zm-60-20h20v20h-20v-20Zm20 0h20v20h-20v-20Zm60 0h20v20h-20v-20Zm-20 0h20v20h-20v-20Zm40 0h20v20h-20v-20Zm-20-20h20v20h-20v-20Zm-20 0h20v20h-20v-20Zm40 0h20v20h-20v-20Zm-40-21h20v21h-20v-21Zm-20 0h20v21h-20v-21Zm40 0h20v21h-20v-21Zm-20-20h20v20h-20v-20Zm-20 0h20v20h-20v-20Zm40 0h20v20h-20v-20Zm-80 0h20v20h-20v-20Zm-20 0h20v20h-20v-20Zm40 0h20v20h-20v-20Zm100 121h20v20h-20v-20Zm0-19h20v19h-20v-19Zm0-21h20v21h-20v-21Zm0-20h20v20h-20v-20Zm-240 20h20v21h-20v-21Zm0-20h20v20h-20v-20Zm40-20h20v20h-20v-20Zm20 0h20v20h-20v-20Zm-40 0h20v20h-20v-20Zm60 0h20v20h-20v-20Zm20 0h20v20h-20v-20Zm-100 0h20v20h-20v-20Zm40-21h20v21h-20v-21Zm20 0h20v21h-20v-21Zm-40 0h20v21h-20v-21Zm60 0h20v21h-20v-21Zm20 0h20v21h-20v-21Zm-100 0h20v21h-20v-21Zm40-20h20v20h-20v-20Zm20 0h20v20h-20v-20Zm-40 0h20v20h-20v-20Zm60 0h20v20h-20v-20Zm-80 0h20v20h-20v-20Zm-20 20h20v21H99v-21Zm0 61h20v21H99v-21Zm0-40h20v20H99v-20Zm20-61h20v20h-20v-20Zm80 0h20v20h-20v-20Zm20 0h20v20h-20v-20Zm-40 0h20v20h-20v-20Zm60 0h20v20h-20v-20Zm40 0h20v20h-20v-20Zm20 0h20v20h-20v-20Zm-40 0h20v20h-20v-20Zm-100 0h20v20h-20v-20Zm-20 0h20v20h-20v-20Zm-40 20h20v20H99v-20Z"/><path stroke="#D9D9D9" stroke-width="5" d="M79 340h20m-20 0v20h20m-20-20v-20h20m0 20v20m0-20h20m-20 0v-20m0 40h20m-20 0v21m20-41v20m0-20h20m-20 0v-20m0 40h20m-20 0v21m-20-61h20m-20 0v-21m0 82h20m-20 0v19h20m0-19v19m0-19h20m-20 19h20m0-19v19m0-19h20m-20 0v-21m0 40h20m-20 0v20h20m0-20h20m-20 0v20m0-20v-19m20 19v20m0-20h20m-20 0v-19m0 39h-20m20 0h20m-20 0v20h20m0-40v20m0-20h20m-20 0v-19m0 39h20m-20 0v20m20-40v20m0-20h20m-20 0v-19m0 39h20m-20 0v20m20-40v20m0-20v-19m0 19h20m-20 20v20m0-20h20m20 0h20m-20 0v20m0-20h-20m20 0v-20m20 20v20m0-20h20m-20 0v-20m0 40h-20m20 0h20m-40 0h-20m-20 0h-20m20 0h20m-40 0h-20m60-20v20m0-20v-20m60 20v20m0-20h20m-20 0v-20m0 40h20m0-20v20m0-20h20m-20 0v-20m0 40h20v-20m0 0v-20m0 20h20v-20m-40 0h20m-20 0v-19m0 19h-20m40 0v-19m0 19h20m-220-19h20m-20 0v-21m20 21h20m-20 0v-21m20 21h20m-20 0v-21m20 21h20m-20 0v-21m20 21v-21m0 21h20m80 0h20m-20 0v-21m0 21h-20m40 0v-21m0 21h20m-220-21h20m-20 0h-20m20 0v-20m20 20h20m-20 0v-20m20 20h20m-20 0v-20m-60 20v-20m80 20h20m-20 0v-20m20 20v-20m0 20h20m80 0h20m-20 0h-20m20 0v-20m20 20v-20m0 20h20m-220-20h20m-20 0h-20m20 0v-20m20 20h20m-20 0v-20m20 20h20m-20 0v-20m-60 20v-20m80 20h20m-20 0v-20m20 20h20m-20 0v-20m20 80v-19m0 19h20m40 0v-19m0 19h-20m-40-19h20m-20 0v-21m60 21h-20m20 0v-21m-40 40h20m-20 0v-19m20 19v-19m-20 0h20m-20 0v-21m20 21v-21m-40 0h20m-20 0v-20m20 20h20m-20 0v-20h-20m40 20h20m-20 0v-20m20 20v-20m0 0h20m-20 0h-20m20 0v-20m20 20h20m-20 0v-20m-40 20v-20m60 20v-20h-20m20 20h20v20m-60-40h20m-20 0h-20m20 0v-21m20 21v-21m-40 21v-21m0 21h-20v-21m20 0h20m-20 0h-20m20 0v-20m20 20h20m-20 0v-20m-40 20v-20m0 20h-20m80 0v-20h-20m-20 0h20m-20 0h-20m20 0v-20m20 20v-20h-20m-20 20h-20m20 0v-20m-40 20h20m-20 0v20m0-20h-20m20 0v-20m20 20v20m0-20v-20m0 40h-20m0 0h-20m20 0v21m-20-41v20m0-20h-20m20 0v-20m0 40h-20m20 0v21m160 80v-19m0 0v-21m-220-40h20m-20 0h-20m20 0v-21m20 21h20m-20 0v-21m20 21h20m-20 0v-21m-60 21h-20m20 0v-21m80 21h20m-120 0v-21m40 0h20m-20 0h-20m20 0v-20m20 20h20m-20 0v-20m20 20v-20m-60 20h-20m20 0v-20m-20 20v-20m0 20H99m60-20h20m-20 0h-20m20 0v-20m20 20h20m-20 0v-20m20 20v-20m-60 20h-20m20 0v-20m-20 20v-20h20m-20 20H99v20m40-40h20m40 0h20m-20 0h-20m40 0h20m0 0h20m-80 0h-20m100 0h20m0 0h20"/></svg>

<svg width="437" height="483" viewBox="0 0 437 483" fill="none" xmlns="http://www.w3.org/2000/svg">
<path d="M59 360H79V380H59V360Z" fill="#949494"/>
<path d="M59 380H79V400H59V380Z" fill="#949494"/>
<path d="M79 400H99V420H79V400Z" fill="#949494"/>
<path d="M199 440H219V460H199V440Z" fill="#949494"/>
<path d="M259 440H299V460H259V440Z" fill="#949494"/>
<path d="M299 440H319V460H299V440Z" fill="#949494"/>
<path d="M259 440H279V460H259V440Z" fill="#949494"/>
<path d="M239 440H259V460H239V440Z" fill="#949494"/>
<path d="M219 440H239V460H219V440Z" fill="#949494"/>
<path d="M99 380H119V400H99V380Z" fill="#949494"/>
<path d="M179 440H199V460H179V440Z" fill="#949494"/>
<path d="M159 420H179V440H159V420Z" fill="#949494"/>
<path d="M159 440H179V460H159V440Z" fill="#949494"/>
<path d="M139 440H159V460H139V440Z" fill="#949494"/>
<path d="M119 440H139V460H119V440Z" fill="#949494"/>
<path d="M119 420H139V440H119V420Z" fill="#949494"/>
<path d="M99 420H119V440H99V420Z" fill="#949494"/>
<path d="M99 400H119V420H99V400Z" fill="#949494"/>
<path d="M79 420H99V440H79V420Z" fill="#949494"/>
<path d="M59 400H79V420H59V400Z" fill="#949494"/>
<path d="M139 420H159V440H139V420Z" fill="#949494"/>
<path d="M119 400H139V420H119V400Z" fill="#949494"/>
<path d="M79 380H99V400H79V380Z" fill="#949494"/>
<path d="M79 360H99V380H79V360Z" fill="#949494"/>
<path d="M59 340H79V360H59V340Z" fill="#949494"/>
<path d="M59 360H79M59 360V380M59 360V340H79V360M79 360V380M79 360H99V380M79 380H59M79 380V400M79 380H99M59 380V400M79 400H59M79 400H99M79 400V420M59 400V420H79M99 400V420M99 400H119M99 400V380M99 420H79M99 420H119M99 420V440M79 420V440H99M199 440H219M199 440V460M199 440H179M219 440V460M219 440H239M219 460H199M219 460H239M199 460H179M259 440H299M259 440V460M259 440H279V460H259M259 440H239M299 440V460M299 440H319V460H299M299 460H259M259 460H239M239 440V460M99 380H119V400M119 400V420M119 400H139V420M179 440V460M179 440V420H159M179 440H159M179 460H159M159 420V440M159 420H139M159 440V460M159 440H139M159 460H139M139 440V460M139 440H119M139 440V420M139 460H119V440M119 440V420M119 440H99M119 420H139" stroke="#949494" stroke-width="5"/>
<path d="M279 340H299V360H279V340Z" fill="#EDEDED"/>
<path d="M279 320H299V340H279V320Z" fill="#EDEDED"/>
<path d="M259 320H279V340H259V320Z" fill="#EDEDED"/>
<path d="M259 300H279V320H259V300Z" fill="#EDEDED"/>
<path d="M239 300H259V320H239V300Z" fill="#EDEDED"/>
<path d="M239 320H259V340H239V320Z" fill="#EDEDED"/>
<path d="M279 340H299M279 340V360H299V340M279 340V320M279 340H259M299 340V320H279M279 320H259M279 320V300H259M259 320V340M259 320V300M259 320H239M259 340H239V320M259 300H239V320" stroke="#EDEDED" stroke-width="5"/>
<path d="M79 340H99V360H79V340Z" fill="#D9D9D9"/>
<path d="M99 340H119V360H99V340Z" fill="#D9D9D9"/>
<path d="M79 320H99V340H79V320Z" fill="#D9D9D9"/>
<path d="M99 381H119V400H99V381Z" fill="#D9D9D9"/>
<path d="M119 381H139V400H119V381Z" fill="#D9D9D9"/>
<path d="M159 400H179V420H159V400Z" fill="#D9D9D9"/>
<path d="M179 400H199V420H179V400Z" fill="#D9D9D9"/>
<path d="M139 400H159V420H139V400Z" fill="#D9D9D9"/>
<path d="M199 400H219V420H199V400Z" fill="#D9D9D9"/>
<path d="M219 400H239V420H219V400Z" fill="#D9D9D9"/>
<path d="M279 420H299V440H279V420Z" fill="#D9D9D9"/>
<path d="M219 420H239V440H219V420Z" fill="#D9D9D9"/>
<path d="M239 420H259V440H239V420Z" fill="#D9D9D9"/>
<path d="M199 420H219V440H199V420Z" fill="#D9D9D9"/>
<path d="M259 420H279V440H259V420Z" fill="#D9D9D9"/>
<path d="M179 420H199V440H179V420Z" fill="#D9D9D9"/>
<path d="M299 420H319V440H299V420Z" fill="#D9D9D9"/>
<path d="M319 420H339V440H319V420Z" fill="#D9D9D9"/>
<path d="M339 420H359V440H339V420Z" fill="#D9D9D9"/>
<path d="M339 400H359V420H339V400Z" fill="#D9D9D9"/>
<path d="M159 381H179V400H159V381Z" fill="#D9D9D9"/>
<path d="M179 381H199V400H179V381Z" fill="#D9D9D9"/>
<path d="M139 381H159V400H139V381Z" fill="#D9D9D9"/>
<path d="M199 381H219V400H199V381Z" fill="#D9D9D9"/>
<path d="M219 381H239V400H219V381Z" fill="#D9D9D9"/>
<path d="M339 381H359V400H339V381Z" fill="#D9D9D9"/>
<path d="M159 360H179V381H159V360Z" fill="#D9D9D9"/>
<path d="M179 360H199V381H179V360Z" fill="#D9D9D9"/>
<path d="M139 360H159V381H139V360Z" fill="#D9D9D9"/>
<path d="M199 360H219V381H199V360Z" fill="#D9D9D9"/>
<path d="M219 360H239V381H219V360Z" fill="#D9D9D9"/>
<path d="M339 360H359V381H339V360Z" fill="#D9D9D9"/>
<path d="M159 340H179V360H159V340Z" fill="#D9D9D9"/>
<path d="M179 340H199V360H179V340Z" fill="#D9D9D9"/>
<path d="M139 340H159V360H139V340Z" fill="#D9D9D9"/>
<path d="M199 340H219V360H199V340Z" fill="#D9D9D9"/>
<path d="M219 340H239V360H219V340Z" fill="#D9D9D9"/>
<path d="M239 400H259V420H239V400Z" fill="#D9D9D9"/>
<path d="M319 400H339V420H319V400Z" fill="#D9D9D9"/>
<path d="M239 381H259V400H239V381Z" fill="#D9D9D9"/>
<path d="M319 381H339V400H319V381Z" fill="#D9D9D9"/>
<path d="M259 400H279V420H259V400Z" fill="#D9D9D9"/>
<path d="M279 400H299V420H279V400Z" fill="#D9D9D9"/>
<path d="M299 400H319V420H299V400Z" fill="#D9D9D9"/>
<path d="M259 381H279V400H259V381Z" fill="#D9D9D9"/>
<path d="M279 381H299V400H279V381Z" fill="#D9D9D9"/>
<path d="M299 381H319V400H299V381Z" fill="#D9D9D9"/>
<path d="M239 360H259V381H239V360Z" fill="#D9D9D9"/>
<path d="M259 360H279V381H259V360Z" fill="#D9D9D9"/>
<path d="M279 360H299V381H279V360Z" fill="#D9D9D9"/>
<path d="M319 360H339V381H319V360Z" fill="#D9D9D9"/>
<path d="M299 360H319V381H299V360Z" fill="#D9D9D9"/>
<path d="M239 340H259V360H239V340Z" fill="#D9D9D9"/>
<path d="M259 340H279V360H259V340Z" fill="#D9D9D9"/>
<path d="M319 340H339V360H319V340Z" fill="#D9D9D9"/>
<path d="M299 340H319V360H299V340Z" fill="#D9D9D9"/>
<path d="M339 340H359V360H339V340Z" fill="#D9D9D9"/>
<path d="M319 320H339V340H319V320Z" fill="#D9D9D9"/>
<path d="M299 320H319V340H299V320Z" fill="#D9D9D9"/>
<path d="M339 320H359V340H339V320Z" fill="#D9D9D9"/>
<path d="M299 299H319V320H299V299Z" fill="#D9D9D9"/>
<path d="M279 299H299V320H279V299Z" fill="#D9D9D9"/>
<path d="M319 299H339V320H319V299Z" fill="#D9D9D9"/>
<path d="M299 279H319V299H299V279Z" fill="#D9D9D9"/>
<path d="M279 279H299V299H279V279Z" fill="#D9D9D9"/>
<path d="M319 279H339V299H319V279Z" fill="#D9D9D9"/>
<path d="M239 279H259V299H239V279Z" fill="#D9D9D9"/>
<path d="M219 279H239V299H219V279Z" fill="#D9D9D9"/>
<path d="M259 279H279V299H259V279Z" fill="#D9D9D9"/>
<path d="M359 400H379V420H359V400Z" fill="#D9D9D9"/>
<path d="M359 381H379V400H359V381Z" fill="#D9D9D9"/>
<path d="M359 360H379V381H359V360Z" fill="#D9D9D9"/>
<path d="M359 340H379V360H359V340Z" fill="#D9D9D9"/>
<path d="M119 360H139V381H119V360Z" fill="#D9D9D9"/>
<path d="M119 340H139V360H119V340Z" fill="#D9D9D9"/>
<path d="M159 320H179V340H159V320Z" fill="#D9D9D9"/>
<path d="M179 320H199V340H179V320Z" fill="#D9D9D9"/>
<path d="M139 320H159V340H139V320Z" fill="#D9D9D9"/>
<path d="M199 320H219V340H199V320Z" fill="#D9D9D9"/>
<path d="M219 320H239V340H219V320Z" fill="#D9D9D9"/>
<path d="M119 320H139V340H119V320Z" fill="#D9D9D9"/>
<path d="M159 299H179V320H159V299Z" fill="#D9D9D9"/>
<path d="M179 299H199V320H179V299Z" fill="#D9D9D9"/>
<path d="M139 299H159V320H139V299Z" fill="#D9D9D9"/>
<path d="M199 299H219V320H199V299Z" fill="#D9D9D9"/>
<path d="M219 299H239V320H219V299Z" fill="#D9D9D9"/>
<path d="M119 299H139V320H119V299Z" fill="#D9D9D9"/>
<path d="M159 279H179V299H159V279Z" fill="#D9D9D9"/>
<path d="M179 279H199V299H179V279Z" fill="#D9D9D9"/>
<path d="M139 279H159V299H139V279Z" fill="#D9D9D9"/>
<path d="M199 279H219V299H199V279Z" fill="#D9D9D9"/>
<path d="M119 279H139V299H119V279Z" fill="#D9D9D9"/>
<path d="M99 299H119V320H99V299Z" fill="#D9D9D9"/>
<path d="M99 360H119V381H99V360Z" fill="#D9D9D9"/>
<path d="M99 320H119V340H99V320Z" fill="#D9D9D9"/>
<path d="M119 259H139V279H119V259Z" fill="#D9D9D9"/>
<path d="M199 259H219V279H199V259Z" fill="#D9D9D9"/>
<path d="M219 259H239V279H219V259Z" fill="#D9D9D9"/>
<path d="M179 259H199V279H179V259Z" fill="#D9D9D9"/>
<path d="M239 259H259V279H239V259Z" fill="#D9D9D9"/>
<path d="M279 259H299V279H279V259Z" fill="#D9D9D9"/>
<path d="M299 259H319V279H299V259Z" fill="#D9D9D9"/>
<path d="M259 259H279V279H259V259Z" fill="#D9D9D9"/>
<path d="M159 259H179V279H159V259Z" fill="#D9D9D9"/>
<path d="M139 259H159V279H139V259Z" fill="#D9D9D9"/>
<path d="M99 279H119V299H99V279Z" fill="#D9D9D9"/>
<path d="M79 340H99M79 340V360H99M79 340V320H99M99 340V360M99 340H119M99 340V320M99 360H119M99 360V381M119 340V360M119 340H139M119 340V320M119 360H139M119 360V381M99 320H119M99 320V299M99 381H119M99 381V400H119M119 381V400M119 381H139M119 400H139M139 381V400M139 381H159M139 381V360M139 400H159M139 400V420H159M159 400H179M159 400V420M159 400V381M179 400V420M179 400H199M179 400V381M179 420H159M179 420H199M179 420V440H199M199 400V420M199 400H219M199 400V381M199 420H219M199 420V440M219 400V420M219 400H239M219 400V381M219 420H239M219 420V440M239 400V420M239 400V381M239 400H259M239 420V440M239 420H259M279 420H299M279 420V440M279 420H259M279 420V400M299 420V440M299 420H319M299 420V400M299 440H279M299 440H319M279 440H259M239 440H219M239 440H259M219 440H199M259 420V440M259 420V400M319 420V440M319 420H339M319 420V400M319 440H339M339 420V440M339 420H359M339 420V400M339 440H359V420M359 420V400M359 420H379V400M339 400H359M339 400V381M339 400H319M359 400V381M359 400H379M159 381H179M159 381V360M179 381H199M179 381V360M199 381H219M199 381V360M219 381H239M219 381V360M239 381V360M239 381H259M339 381H359M339 381V360M339 381H319M359 381V360M359 381H379M159 360H179M159 360H139M159 360V340M179 360H199M179 360V340M199 360H219M199 360V340M139 360V340M219 360H239M219 360V340M239 360V340M239 360H259M339 360H359M339 360H319M339 360V340M359 360V340M359 360H379M159 340H179M159 340H139M159 340V320M179 340H199M179 340V320M199 340H219M199 340V320M139 340V320M219 340H239M219 340V320M239 340H259M239 340V320M259 400V381M259 400H279M319 400V381M319 400H299M259 381H279M259 381V360M319 381H299M319 381V360M279 400H299M279 400V381M299 400V381M279 381H299M279 381V360M299 381V360M259 360H279M259 360V340M279 360H299M279 360V340H259M299 360H319M299 360V340M319 360V340M319 340H339M319 340H299M319 340V320M339 340H359M339 340V320M299 340V320M359 340V320H339M359 340H379V360M319 320H339M319 320H299M319 320V299M339 320V299M299 320V299M299 320H279V299M299 299H319M299 299H279M299 299V279M319 299H339M319 299V279M279 299V279M279 299H259M339 299V279H319M299 279H319M299 279H279M299 279V259M319 279V259H299M279 279H259M279 279V259M239 279H259M239 279V299M239 279H219M239 279V259M259 279V299M259 279V259M259 299H239M239 299H219M239 299V320M219 279V299M219 279H199M219 279V259M219 299H199M219 299V320M379 400V381M379 381V360M159 320H179M159 320H139M159 320V299M179 320H199M179 320V299M199 320H219M199 320V299M139 320H119M139 320V299M219 320H239M119 320V299M159 299H179M159 299H139M159 299V279M179 299H199M179 299V279M199 299V279M139 299H119M139 299V279M119 299V279M119 299H99M159 279H179M159 279H139M159 279V259M179 279H199M179 279V259M199 279V259M139 279H119M139 279V259M119 279V259H139M119 279H99V299M139 259H159M199 259H219M199 259H179M219 259H239M239 259H259M179 259H159M259 259H279M279 259H299" stroke="#D9D9D9" stroke-width="5"/>
</svg>
